res/skins/Tango/knobs_sliders/crossfader_scale.svg

<?xml version="1.0" encoding="UTF-8" standalone="no"?>
<!-- Created with Inkscape (http://www.inkscape.org/) -->

<svg
   xmlns:dc="http://purl.org/dc/elements/1.1/"
   xmlns:cc="http://creativecommons.org/ns#"
   xmlns:rdf="http://www.w3.org/1999/02/22-rdf-syntax-ns#"
   xmlns:svg="http://www.w3.org/2000/svg"
   xmlns="http://www.w3.org/2000/svg"
   version="1.1"
   width="108"
   height="32"
   id="svg2">
  <metadata
     id="metadata10">
    <rdf:RDF>
      <cc:Work
         rdf:about="">
        <dc:format>image/svg+xml</dc:format>
        <dc:type
           rdf:resource="http://purl.org/dc/dcmitype/StillImage" />
        <dc:title></dc:title>
      </cc:Work>
    </rdf:RDF>
  </metadata>
  <defs
     id="defs8" />
  <path
     d="M 5,5 V 27 H 7 V 19.5 C 7,18.16177 8.1187295,17 9.5,17 h 41 c 1.380713,0 2.5,1.119288 2.5,2.5 V 28 h 2 V 19.5 C 55,18.119287 56.119288,17 57.5,17 h 41 c 1.38071,0 2.33868,1.128744 2.5,2.5 V 27 h 2 V 5 h -2 v 7.5 c 0,1.380712 -1.11929,2.5 -2.5,2.5 h -41 C 56.119287,15 55,13.880712 55,12.5 V 4 h -2 v 8.5 C 53,13.880713 51.880712,15 50.5,15 H 9.5 C 8.119288,15 7.1613241,13.871255 7,12.5 V 5 z"
     id="path4"
     style="fill:#828282" />
</svg>

<!-- Created with Inkscape (http://www.inkscape.org/) -->
<svg id="svg2" width="108" height="32" version="1.1" xmlns="http://www.w3.org/2000/svg"><path id="path4" d="m5 5v22h2v-7.5c0-1.3382 1.1187-2.5 2.5-2.5h41c1.3807 0 2.5 1.1193 2.5 2.5v8.5h2v-8.5c0-1.3807 1.1193-2.5 2.5-2.5h41c1.3807 0 2.3387 1.1287 2.5 2.5v7.5h2v-22h-2v7.5c0 1.3807-1.1193 2.5-2.5 2.5h-41c-1.3807 0-2.5-1.1193-2.5-2.5v-8.5h-2v8.5c0 1.3807-1.1193 2.5-2.5 2.5h-41c-1.3807 0-2.3387-1.1287-2.5-2.5v-7.5z" fill="#828282"/></svg>
